Newaita/actions/scalable/news-subscribe.svg

<?xml version="1.0" encoding="UTF-8"?>
<svg xmlns="http://www.w3.org/2000/svg" xmlns:xlink="http://www.w3.org/1999/xlink" width="512pt" height="512pt" viewBox="0 0 512 512" version="1.1">
<g id="surface1">
<path style=" stroke:none;fill-rule:nonzero;fill:rgb(25.882354%,25.882354%,25.882354%);fill-opacity:1;" d="M 52.921875 25.167969 C 35.332031 25.167969 21.167969 39.332031 21.167969 56.921875 L 21.167969 459.125 C 21.167969 476.71875 35.332031 490.878906 52.921875 490.878906 L 455.125 490.878906 C 472.71875 490.878906 486.878906 476.71875 486.878906 459.125 L 486.878906 56.921875 C 486.878906 39.332031 472.71875 25.167969 455.125 25.167969 Z M 74.089844 56.921875 L 433.957031 56.921875 C 445.683594 56.921875 455.125 66.363281 455.125 78.089844 L 455.125 437.957031 C 455.125 449.6875 445.683594 459.125 433.957031 459.125 L 74.089844 459.125 C 62.363281 459.125 52.921875 449.6875 52.921875 437.957031 L 52.921875 78.089844 C 52.921875 66.363281 62.363281 56.921875 74.089844 56.921875 Z M 74.089844 56.921875 "/>
<path style=" stroke:none;fill-rule:nonzero;fill:rgb(25.882354%,25.882354%,25.882354%);fill-opacity:1;" d="M 121.71875 109.84375 L 216.980469 109.84375 C 225.746094 109.84375 232.855469 116.953125 232.855469 125.71875 C 232.855469 134.488281 225.746094 141.597656 216.980469 141.597656 L 121.71875 141.597656 C 112.953125 141.597656 105.84375 134.488281 105.84375 125.71875 C 105.84375 116.953125 112.953125 109.84375 121.71875 109.84375 Z M 121.71875 109.84375 "/>
<path style=" stroke:none;fill-rule:nonzero;fill:rgb(25.882354%,25.882354%,25.882354%);fill-opacity:1;" d="M 121.71875 194.519531 L 216.980469 194.519531 C 225.746094 194.519531 232.855469 201.625 232.855469 210.394531 C 232.855469 219.164062 225.746094 226.273438 216.980469 226.273438 L 121.71875 226.273438 C 112.953125 226.273438 105.84375 219.164062 105.84375 210.394531 C 105.84375 201.625 112.953125 194.519531 121.71875 194.519531 Z M 121.71875 194.519531 "/>
<path style=" stroke:none;fill-rule:nonzero;fill:rgb(25.882354%,25.882354%,25.882354%);fill-opacity:1;" d="M 121.71875 279.191406 L 216.980469 279.191406 C 225.746094 279.191406 232.855469 286.300781 232.855469 295.070312 C 232.855469 303.839844 225.746094 310.945312 216.980469 310.945312 L 121.71875 310.945312 C 112.953125 310.945312 105.84375 303.839844 105.84375 295.070312 C 105.84375 286.300781 112.953125 279.191406 121.71875 279.191406 Z M 121.71875 279.191406 "/>
<path style=" stroke:none;fill-rule:nonzero;fill:rgb(25.882354%,25.882354%,25.882354%);fill-opacity:1;" d="M 121.71875 363.867188 L 216.980469 363.867188 C 225.746094 363.867188 232.855469 370.976562 232.855469 379.746094 C 232.855469 388.511719 225.746094 395.621094 216.980469 395.621094 L 121.71875 395.621094 C 112.953125 395.621094 105.84375 388.511719 105.84375 379.746094 C 105.84375 370.976562 112.953125 363.867188 121.71875 363.867188 Z M 121.71875 363.867188 "/>
<path style=" stroke:none;fill-rule:nonzero;fill:rgb(47.058824%,56.470591%,61.176473%);fill-opacity:1;" d="M 291.070312 109.84375 L 386.328125 109.84375 C 395.097656 109.84375 402.203125 116.953125 402.203125 125.71875 L 402.203125 220.980469 C 402.203125 229.746094 395.097656 236.855469 386.328125 236.855469 L 291.070312 236.855469 C 282.300781 236.855469 275.191406 229.746094 275.191406 220.980469 L 275.191406 125.71875 C 275.191406 116.953125 282.300781 109.84375 291.070312 109.84375 Z M 291.070312 109.84375 "/>
<path style=" stroke:none;fill-rule:nonzero;fill:rgb(47.058824%,56.470591%,61.176473%);fill-opacity:1;" d="M 291.070312 279.191406 L 386.328125 279.191406 C 395.097656 279.191406 402.203125 286.300781 402.203125 295.070312 C 402.203125 303.839844 395.097656 310.945312 386.328125 310.945312 L 291.070312 310.945312 C 282.300781 310.945312 275.191406 303.839844 275.191406 295.070312 C 275.191406 286.300781 282.300781 279.191406 291.070312 279.191406 Z M 291.070312 279.191406 "/>
<path style=" stroke:none;fill-rule:nonzero;fill:rgb(25.882354%,25.882354%,25.882354%);fill-opacity:1;" d="M 291.070312 363.867188 L 386.328125 363.867188 C 395.097656 363.867188 402.203125 370.976562 402.203125 379.746094 C 402.203125 388.511719 395.097656 395.621094 386.328125 395.621094 L 291.070312 395.621094 C 282.300781 395.621094 275.191406 388.511719 275.191406 379.746094 C 275.191406 370.976562 282.300781 363.867188 291.070312 363.867188 Z M 291.070312 363.867188 "/>
</g>
</svg>

<svg xmlns="http://www.w3.org/2000/svg" width="512pt" height="512pt" viewBox="0 0 512 512"><path d="M52.922 25.168c-17.59 0-31.754 14.164-31.754 31.754v402.203c0 17.594 14.164 31.754 31.754 31.754h402.203a31.682 31.682 0 0 0 31.754-31.754V56.922c0-17.59-14.16-31.754-31.754-31.754zM74.09 56.922h359.867a21.122 21.122 0 0 1 21.168 21.168v359.867a21.12 21.12 0 0 1-21.168 21.168H74.09a21.12 21.12 0 0 1-21.168-21.168V78.09A21.122 21.122 0 0 1 74.09 56.922zm0 0" fill="#424242"/><path d="M121.719 109.844h95.261c8.766 0 15.875 7.11 15.875 15.875 0 8.77-7.109 15.879-15.875 15.879H121.72c-8.766 0-15.875-7.11-15.875-15.88 0-8.765 7.11-15.874 15.875-15.874zm0 0M121.719 194.52h95.261c8.766 0 15.875 7.105 15.875 15.875s-7.109 15.878-15.875 15.878H121.72c-8.766 0-15.875-7.109-15.875-15.878 0-8.77 7.11-15.875 15.875-15.875zm0 0M121.719 279.191h95.261c8.766 0 15.875 7.11 15.875 15.88 0 8.769-7.109 15.874-15.875 15.874H121.72c-8.766 0-15.875-7.105-15.875-15.875s7.11-15.879 15.875-15.879zm0 0M121.719 363.867h95.261c8.766 0 15.875 7.11 15.875 15.88 0 8.765-7.109 15.874-15.875 15.874H121.72c-8.766 0-15.875-7.11-15.875-15.875 0-8.77 7.11-15.879 15.875-15.879zm0 0" fill="#424242"/><path d="M291.07 109.844h95.258c8.77 0 15.875 7.11 15.875 15.875v95.261c0 8.766-7.105 15.875-15.875 15.875H291.07c-8.77 0-15.879-7.109-15.879-15.875V125.72c0-8.766 7.11-15.875 15.88-15.875zm0 0M291.07 279.191h95.258c8.77 0 15.875 7.11 15.875 15.88 0 8.769-7.105 15.874-15.875 15.874H291.07c-8.77 0-15.879-7.105-15.879-15.875s7.11-15.879 15.88-15.879zm0 0" fill="#78909c"/><path d="M291.07 363.867h95.258c8.77 0 15.875 7.11 15.875 15.88 0 8.765-7.105 15.874-15.875 15.874H291.07c-8.77 0-15.879-7.11-15.879-15.875 0-8.77 7.11-15.879 15.88-15.879zm0 0" fill="#424242"/></svg>
